!!!COM: Palestrina, Giovanni Perluigi da
!!!OPR: Missa In illo tempore
!!!OMD: Sanctus
!!!OTL: First Section
**kern	**kern	**kern	**kern
*Ibass	*Itenor	*Icalto	*Icant
!Bassus	!Tenor	!Altus	!Cantus
*clefF4	*clefGv2	*clefG2	*clefG2
*k[]	*k[]	*k[]	*k[]
*A:aeo	*A:aeo	*A:aeo	*A:aeo
*M4/2	*M4/2	*M4/2	*M4/2
=1	=1	=1	=1
0r	0A	0r	0r
=2	=2	=2	=2
0r	1A	0r	0r
.	1G	.	.
=3	=3	=3	=3
0r	1.c	0e	0r
.	4B	.	.
.	4A	.	.
=4	=4	=4	=4
0r	2G	1e	0r
.	2A	.	.
.	1B	1d	.
=5	=5	=5	=5
0r	2E	1.g	0r
.	4G	.	.
.	4A	.	.
.	4B	.	.
.	4c	.	.
.	[2d	4f	.
.	.	4e	.
=6	=6	=6	=6
0r	2d]	2d	0a
.	2c#	2e	.
.	1d	1f	.
=7	=7	=7	=7
0r	2.A	2e	1a
.	.	4c	.
.	4B	4d	.
.	2c	4e	1g
.	.	4f	.
.	2B	[2g	.
=8	=8	=8	=8
1r	1A	2g]	1.cc
.	.	2f	.
[1E	2.G	2.g	.
.	.	.	4b
.	4A	4f	4a
=9	=9	=9	=9
1E]	2B	4e	2g
.	.	4d	.
.	1A	2c	2a
1E	.	2.B	2b
.	2G	.	2e
.	.	4c	.
=10	=10	=10	=10
1D	1A	1d	4f#
.	.	.	4g
.	.	.	4a
.	.	.	4f#
[1G	1B	2r	2.g
.	.	4G	.
.	.	4A	4f
=11	=11	=11	=11
2G]	2r	4B	4d
.	.	4c	4e
2F	1A	1d	4f
.	.	.	4g
4E	.	.	4a
4D	.	.	4b
2E	2G	4c	[2cc
.	.	4B	.
=12	=12	=12	=12
1F	2c	1A	2cc]
.	2d	.	4b
.	.	.	4a
2E	2.e	2B	2g
4C	.	2c	[2e
4D	4d	.	.
=13	=13	=13	=13
4E	2c	0G	2e]
4F	.	.	.
2G	2.B	.	2d
2.E	.	.	2g
.	4G	.	.
.	[2c	.	2e
4C	.	.	.
=14	=14	=14	=14
1D	2c]	1r	1f
.	2B	.	.
1C	2.c	2r	2e
.	.	[2e	4g
.	8B	.	4a
.	8A	.	.
=15	=15	=15	=15
0r	1G	2e]	4b
.	.	.	4cc
.	.	2d	2dd
.	1r	2g	2b
.	.	2e	[2cc
=16	=16	=16	=16
0r	1r	1f	2cc]
.	.	.	2a
.	[1A	2e	[1cc
.	.	4c	.
.	.	4d	.
=17	=17	=17	=17
0r	2A]	4e	2cc]
.	.	4f	.
.	2G	2g	4b
.	.	.	4a
.	2c	2e	2g
.	2A	2f	[2a
=18	=18	=18	=18
1r	1B	1d	2a]
.	.	.	4g
.	.	.	4f
[1E	2r	1e	2g
.	4G	.	2e
.	4A	.	.
=19	=19	=19	=19
2E]	4B	2r	2g
.	4c	.	.
2D	2.d	2A	4f
.	.	.	4e
2G	.	2B	2d
.	4B	.	.
2E	[2c	2G	2e
=20	=20	=20	=20
1F	2c]	2c	2A
.	4B	2d	1a
.	4A	.	.
1E	1B	1e	.
.	.	.	2g#
=21	=21	=21	=21
1.F	1A	2r	1a
.	.	2c	.
.	1r	2d	2r
2E	.	2e	2g
=22	=22	=22	=22
2D	0r	2f	2a
2G	.	2d	2b
2C	.	2e	2cc
[2c	.	2e	2g
=23	=23	=23	=23
2c]	1G	1d	2dd
2B	.	.	2dd
2A	2A	2r	2cc
4G	2B	2d	4b
4F	.	.	4a
=24	=24	=24	=24
1E	2c	2e	4g
.	.	.	4a
.	2G	2.g	4b
.	.	.	4g
1D	2d	.	1a
.	.	4f	.
.	2d	2f	.
=25	=25	=25	=25
1r	2c	2e	2r
.	4B	4d	1g
.	4A	4c	.
2r	2G	2B	.
2C	[2A	2c	2e
=26	=26	=26	=26
2D	2A]	1B	2f
2E	2G	.	1e
1F	1A	1r	.
.	.	.	2d
=27	=27	=27	=27
1C	1G	2r	4e
.	.	.	4f
.	.	2c	4g
.	.	.	4a
2G	2r	2d	2b
2E	2G	2e	2cc
=28	=28	=28	=28
1D	2A	2f	1dd
.	2B	2d	.
[1C	2.c	4g	2r
.	.	4f	.
.	.	4e	2g
.	4B	4d	.
=29	=29	=29	=29
2C]	2A	4c	2a
.	.	4A	.
2BB	1G	2d	2b
1AA	.	1c	2cc
.	2F#	.	2a
=30	=30	=30	=30
0r	2G	2B	2dd
.	2B	2d	2dd
.	1A	2e	2.cc
.	.	2f	.
.	.	.	8b
.	.	.	8a
=31	=31	=31	=31
0r	2r	1.e	2g
.	2G	.	2b
.	2A	.	2a
.	2B	2d	[2g
=32	=32	=32	=32
1r	2c	2e	4g]
.	.	.	4a
.	2G	1g	4b
.	.	.	4g
1D	2.d	.	1a
.	.	2f	.
.	4c	.	.
=33	=33	=33	=33
2E	2B	2e	1r
2F	2A	2.d	.
2G	2B	.	1d
.	.	4e	.
2D	[2d	2f	.
=34	=34	=34	=34
2A	4d]	2e	2e
.	4c	.	.
2A	1c	2c	2f
1G	.	2.d	2g
.	2B	.	2d
.	.	8c	.
.	.	8B	.
=35	=35	=35	=35
2F	1.c	4A	2a
.	.	4B	.
4E	.	4c	4g
4D	.	4d	4f
2C	.	2e	2g
2F	2A	2c	[2a
=36	=36	=36	=36
2E	2B	1e	4a]
.	.	.	4g
2C	2c	.	1g
1D	1A	1d	.
.	.	.	2f#
=37	=37	=37	=37
0G	0G	0d	0g
*-	*-	*-	*-
!!!CDT: 1525/^1526/-1594/2/2
!!!OCY: Italia
!!!AGN: Mass (Parody)
!!!AST: renaissance, vocal
!!!ASW: Motet 1518 (Moulu)
!!!PWK: Masses, Book 10
!!!RNB: Cadence finals: E,G,C
!!!YOR: Le Opere Complete, v. 27, p. 1
!!!YOO: Rome, Italy: Fratelli Scalera
!!!END: 1992//
!!!EED: John Miller
!!!YEC: Copyright 2000, John Miller
!!!YEN: United States of America
!!!YEM: Rights to all derivative electronic formats reserved.
!!!YEM: Refer to licensing agreement for further details.
!!!YEM: This file must be accompanied by the licensing agreement.
!!!YEM: A copy of the licensing agreement may be found at http://www.music-cog.ohio-state.edu/HumdrumDatabases/Palestrina/license.txt
!!!EMD: converted to Humdrum by Bret Aarden
